X:11
T:500. Woman of the House, The
R:reel
S:Vol 5 Mike and Mary Rafferty
H:Sligo
B:Breathnach (CRÉ I), 1963; No. 86, pg. 38.
D:Vol 5 Mike and Mary Rafferty
Z:Lesl
M:C|
L:1/8
Z: Contributed 2016-03-16 02:35:01 by Jim Gaskins fiddleji@com.net
K:G
GE|:DBBA B2BA|GA (3Bcd egdB |AAGB A2 (3Bcd|eB~B2 gB~B2|
GBBA B2BA|GA (3Bcd egdB |~G3B A2GA|1 BGAG EG~GE:|2 BGAG EG~G2|
|:~f3d edBd|egfd edBd|~f3d edBd|eaag a2ag|
~f3d ed (3Bcd|~g3e d2BA|~G3B A2GA|BGAG EG~G2:|
